assets/icons/ic_shield_lock.svg

<svg fill="none" height="24" viewBox="0 0 24 24" width="24" xmlns="http://www.w3.org/2000/svg"><linearGradient id="a" gradientUnits="userSpaceOnUse" x1="12" x2="12" y1=".074707" y2="23.5082"><stop offset="0" stop-color="#c4c4c4"/><stop offset=".0001" stop-color="#18a0fb"/><stop offset="1" stop-color="#426bff"/></linearGradient><path clip-rule="evenodd" d="m12.8.199594c-.5203-.1665154-1.0797-.1665163-1.6-.000001l-7.87504 2.519997c-1.08722.34791-1.82496 1.35858-1.82496 2.50011v5.2801c0 2.3491.47885 4.7736 1.9548 7.0232 1.47467 2.2478 3.87774 4.2189 7.5478 5.782.636.271 1.3588.271 1.9948 0 3.67-1.5631 6.0732-3.5342 7.5478-5.782 1.476-2.2496 1.9548-4.6741 1.9548-7.0232v-5.2801c0-1.14153-.7377-2.1522-1.8249-2.50011zm-.9143 2.142956c.0743-.02379.1543-.02379.2286 0l7.875 2.52c.1552.04969.2607.19408.2607.35715v5.2801c0 2.0375-.4121 3.9995-1.5861 5.789-1.1752 1.7914-3.1815 3.5123-6.5482 4.9463-.0727.0308-.1587.0308-.2314 0-3.36673-1.434-5.37289-3.1549-6.54825-4.9463-1.17408-1.7895-1.58605-3.7515-1.58605-5.789v-5.2801c0-.16307.10539-.30746.26072-.35715zm2.3643 7.40727c0 .83278-.4525 1.55998-1.125 1.94898v3.676c0 .6214-.5037 1.125-1.125 1.125s-1.125-.5036-1.125-1.125v-3.676c-.6725-.389-1.125-1.1162-1.125-1.94898 0-1.24265 1.0074-2.25 2.25-2.25s2.25 1.00735 2.25 2.25z" fill="url(#a)" fill-rule="evenodd"/></svg>

<svg width="24" height="24" viewBox="0 0 24 24" fill="none" xmlns="http://www.w3.org/2000/svg">
<path fill-rule="evenodd" clip-rule="evenodd" d="M12.8 0.199594C12.2797 0.0330786 11.7203 0.0330777 11.2 0.199593L3.32496 2.71959C2.23774 3.0675 1.5 4.07817 1.5 5.2197V10.4998C1.5 12.8489 1.97885 15.2734 3.4548 17.523C4.92947 19.7708 7.33254 21.7419 11.0026 23.305C11.6386 23.576 12.3614 23.576 12.9974 23.305C16.6674 21.7419 19.0706 19.7708 20.5452 17.523C22.0212 15.2734 22.5 12.8489 22.5 10.4998V5.2197C22.5 4.07817 21.7623 3.0675 20.6751 2.71959L12.8 0.199594ZM11.8857 2.34255C11.96 2.31876 12.04 2.31876 12.1143 2.34255L19.9893 4.86255C20.1445 4.91224 20.25 5.05663 20.25 5.2197V10.4998C20.25 12.5373 19.8379 14.4993 18.6639 16.2888C17.4887 18.0802 15.4824 19.8011 12.1157 21.2351C12.043 21.2659 11.957 21.2659 11.8843 21.2351C8.51757 19.8011 6.51141 18.0802 5.33605 16.2888C4.16197 14.4993 3.75 12.5373 3.75 10.4998V5.2197C3.75 5.05663 3.85539 4.91224 4.01072 4.86255L11.8857 2.34255ZM14.25 9.74982C14.25 10.5826 13.7975 11.3098 13.125 11.6988V15.3748C13.125 15.9962 12.6213 16.4998 12 16.4998C11.3787 16.4998 10.875 15.9962 10.875 15.3748V11.6988C10.2025 11.3098 9.75 10.5826 9.75 9.74982C9.75 8.50717 10.7574 7.49982 12 7.49982C13.2426 7.49982 14.25 8.50717 14.25 9.74982Z" fill="url(#paint0_linear_1067_9472)"/>
<defs>
<linearGradient id="paint0_linear_1067_9472" x1="12" y1="0.074707" x2="12" y2="23.5082" gradientUnits="userSpaceOnUse">
<stop stop-color="#C4C4C4"/>
<stop offset="0.0001" stop-color="#18A0FB"/>
<stop offset="1" stop-color="#426BFF"/>
</linearGradient>
</defs>
</svg>
